X:1
T:Les Orientales
T:Clair de lune
T:A Madame Ch. Lamoureux (BRUNET-LAFLEUR) 
T:Les Orientales
T:3. Clair de lune
T:Marie Jaëll 
T:Victor Hugo 
T:Creative Commons copyright waiver (CC0 1.0 Universal)
T:Creative Commons copyright waiver (CC0 1.0 Universal)
T:Creative Commons copyright waiver (CC0 1.0 Universal)
T:Creative Commons copyright waiver (CC0 1.0 Universal)
T:Creative Commons copyright waiver (CC0 1.0 Universal)
T:Creative Commons copyright waiver (CC0 1.0 Universal)
T:Creative Commons copyright waiver (CC0 1.0 Universal)
T:Creative Commons copyright waiver (CC0 1.0 Universal)
C:Marie Jaëll
Z:Victor Hugo
Z:Creative Commons copyright waiver (CC0 1.0 Universal)
%%score 1 { ( 2 3 ) | 4 }
L:1/8
Q:1/4=60
M:6/8
K:E
V:1 treble nm="Chant\nVoice"
V:2 treble nm="Piano"
V:3 treble 
V:4 bass 
V:1
"^Assez lentement" z6 | z6 | z6 | z2 z z2 B | B3- B3/2 G/ G/ G/ | G3- G E E | C3- C D D | %7
w: |||La|lune _ é- tait se-|reine _ et jou-|ait _ sur les|
 E3- E z z | z6 | z6 | z6 | z6 | z6 | z6 | z6 | z6 | z6 | z6 | z6 | z6 | z6 | z6 | z6 | z6 | z6 | %25
w: flots. _||||||||||||||||||
 z6 | z6 | z6 | z6 | z6 | z6 | z6 | z6 | z6 | z6 || %35
w: ||||||||||
[K:G][M:2/4]"^Voice part: local time signture 2/4"[Q:1/4=172]"^Très vite" z6 | z6 | z6 | z6 | z6 | %40
w: |||||
 z6 | z6 | z6 | z6 | z6 | z6 | z6 | z6 | z6 | z6 | z6 | z6 ||[K:F] z6 | z6 | z6 | z6 | z6 | z6 | %58
w: ||||||||||||||||||
 z6 | z6 | z6 | z6 | z6 | z6 ||[K:Eb] z6 | z6 | z6 | z6 | z6 | z6 | z6 | z6 | z6 | z6 | z6 | z6 | %76
w: ||||||||||||||||||
 z6 | z6 | z6 | z6 | z6 | z6 | z6 ||[K:G][M:2/4][Q:1/4=92]"^Plus lent" z4 | z4 | z4 | z4 | z4 | %88
w: ||||||||||||
 z4 | z4 | z4 ||[M:6/8][Q:1/8=92] z6 | z6 | z6 | z6 | z6 | z6 |[Q:1/4=172]"^Très vite" z6 | z6 | %99
w: |||||||||||
 z6 | z6 | z6 | z6 | z6 | z6 | z6 | z6 | z6 | z6 |[Q:1/4=114]"^Plus lent" z6 | z6 | z6 | z6 | z6 | %114
w: |||||||||||||||
 z6 | z6 | z6 ||[K:E][Q:1/4=50]"^Très lentement" z6 | z6 | z6 | z6 | z6 | z6 | z6 | z6 | z6 | z6 | %127
w: |||||||||||||
 z6 |] %128
w: |
V:2
!p!(x/E/G/E/G/E/ G/E/G,/E/G/E/) | z6 | z6 | z6 | z6 | z6 | z6 | z6 | z6 | z6 | z6 | z6 | z6 | z6 | %14
 z6 | z6 | z6 | z6 | z6 | z6 | z6 | z6 | z6 | z6 | z6 | z6 | z6 | z6 | z6 | z6 | z6 | z6 | z6 | %33
 z6 | z6 ||[K:G] z6 | z6 | z6 | z6 | z6 | z6 | z6 | z6 | z6 | z6 | z6 | z6 | z6 | z6 | z6 | z6 | %51
 z6 ||[K:F] z6 | z6 | z6 | z6 | z6 | z6 | z6 | z6 | z6 | z6 | z6 | z6 ||[K:Eb] z6 | z6 | z6 | z6 | %68
 z6 | z6 | z6 | z6 | z6 | z6 | z6 | z6 | z6 | z6 | z6 | z6 | z6 | z6 | z6 || %83
[K:G][M:2/4]"^Plus lent" z4 | z4 | z4 | z4 | z4 | z4 | z4 | z4 || %91
[M:6/8]"_Voice & Piano:\nGeneral time\nsignature 6/8\n" z6 | z6 | z6 | z6 | z6 | z6 | %97
"^Très vite" z6 | z6 | z6 | z6 | z6 | z6 | z6 | z6 | z6 | z6 | z6 | z6 |"^Plus lent" z6 | z6 | z6 | %112
 z6 | z6 | z6 | z6 | z6 ||[K:E]"^Très lentement" z6 | z6 | z6 | z6 | z6 | z6 | z6 | z6 | z6 | z6 | %127
 z6 |] %128
V:3
 G,3- G, G,2 | x6 | x6 | x6 | x6 | x6 | x6 | x6 | x6 | x6 | x6 | x6 | x6 | x6 | x6 | x6 | x6 | x6 | %18
 x6 | x6 | x6 | x6 | x6 | x6 | x6 | x6 | x6 | x6 | x6 | x6 | x6 | x6 | x6 | x6 | x6 ||[K:G] x6 | %36
 x6 | x6 | x6 | x6 | x6 | x6 | x6 | x6 | x6 | x6 | x6 | x6 | x6 | x6 | x6 | x6 ||[K:F] x6 | x6 | %54
 x6 | x6 | x6 | x6 | x6 | x6 | x6 | x6 | x6 | x6 ||[K:Eb] x6 | x6 | x6 | x6 | x6 | x6 | x6 | x6 | %72
 x6 | x6 | x6 | x6 | x6 | x6 | x6 | x6 | x6 | x6 | x6 ||[K:G][M:2/4] x4 | x4 | x4 | x4 | x4 | x4 | %89
 x4 | x4 ||[M:6/8] x6 | x6 | x6 | x6 | x6 | x6 | x6 | x6 | x6 | x6 | x6 | x6 | x6 | x6 | x6 | x6 | %107
 x6 | x6 | x6 | x6 | x6 | x6 | x6 | x6 | x6 | x6 ||[K:E] x6 | x6 | x6 | x6 | x6 | x6 | x6 | x6 | %125
 x6 | x6 | x6 |] %128
V:4
"^una corda"!ped! (E,2 B,, E,,B,,E,)!ped-up! |!ped! z6!ped-up! |!ped! z6!ped-up! | z6 | z6 | z6 | %6
 z6 | z6 | z6 | z6 | z6 | z6 | z6 | z6 | z6 | z6 | z6 | z6 | z6 | z6 | z6 | z6 | z6 | z6 | z6 | %25
 z6 | z6 | z6 | z6 | z6 | z6 | z6 | z6 | z6 | z6 ||[K:G]"_Piano: general time signature 6/8" z6 | %36
 z6 | z6 | z6 | z6 | z6 | z6 | z6 | z6 | z6 | z6 | z6 | z6 | z6 | z6 | z6 | z6 ||[K:F] z6 | z6 | %54
 z6 | z6 | z6 | z6 | z6 | z6 | z6 | z6 | z6 | z6 ||[K:Eb] z6 | z6 | z6 | z6 | z6 | z6 | z6 | z6 | %72
 z6 | z6 | z6 | z6 | z6 | z6 | z6 | z6 | z6 | z6 | z6 || %83
[K:G][M:2/4]"^Voice & Piano:\nGeneral time\nsignature 2/4\n" z4 | z4 | z4 | z4 | z4 | z4 | z4 | %90
 z4 ||[M:6/8] z6 | z6 | z6 | z6 | z6 | z6 | z6 | z6 | z6 | z6 | z6 | z6 | z6 | z6 | z6 | z6 | z6 | %108
 z6 | z6 | z6 | z6 | z6 | z6 | z6 | z6 | z6 ||[K:E] z6 | z6 | z6 | z6 | z6 | z6 | z6 | z6 | z6 | %126
 z6 | z6 |] %128

